icons/radiopublic.svg

<svg width="32" height="32" viewBox="0 0 32 32" fill="none" xmlns="http://www.w3.org/2000/svg">
<path fill-rule="evenodd" clip-rule="evenodd" d="M3.36627 28.6337C0.910867 26.1783 0 22.1783 0 16C0 9.82167 0.910867 5.82167 3.36627 3.36627C5.82167 0.910867 9.82167 0 16 0C22.1783 0 26.1783 0.910867 28.6337 3.36627C31.0891 5.82167 32 9.82167 32 16C32 22.1783 31.0891 26.1783 28.6337 28.6337C26.1783 31.0891 22.1783 32 16 32C9.82167 32 5.82167 31.0891 3.36627 28.6337Z" fill="#CF2327"/>
<path fill-rule="evenodd" clip-rule="evenodd" d="M17.5779 5.92852C16.7702 5.55371 15.8822 5.38483 14.9933 5.43699C13.9622 5.47353 12.9628 5.70874 11.963 5.94403C11.1367 6.1385 10.3102 6.33301 9.4654 6.41546C8.59162 6.49938 7.70993 6.40045 6.87647 6.12499C6.72363 6.06139 6.56854 6.00428 6.4112 5.95366C6.40141 9.1412 6.40286 12.3288 6.4043 15.5163C6.40535 17.8177 6.40639 20.119 6.4032 22.4203C6.40156 22.769 6.40536 23.1179 6.4146 23.467C6.50036 23.4976 6.58502 23.5314 6.66967 23.5651C6.83194 23.6298 6.99419 23.6945 7.16414 23.737C8.12117 23.9966 9.12499 24.0335 10.0985 23.8446C10.7679 23.7468 11.4269 23.5918 12.0857 23.4368C12.8988 23.2456 13.7118 23.0544 14.5441 22.9707C14.5471 23.4296 14.546 23.8884 14.5449 24.3473C14.5435 24.9201 14.5421 25.4928 14.5487 26.0657C15.4192 26.4671 16.3792 26.6347 17.3342 26.5517C18.277 26.4885 19.1935 26.2713 20.1103 26.0541C20.8148 25.8871 21.5194 25.7202 22.2361 25.623C23.3776 25.4424 24.547 25.5991 25.6007 26.0737C25.589 20.2359 25.5897 14.3982 25.6028 8.56039C24.7544 8.14576 23.8092 7.96981 22.8684 8.05139C21.896 8.10935 20.9512 8.33269 20.006 8.5561C19.2042 8.74562 18.4022 8.93519 17.583 9.02392C17.5793 8.55154 17.5805 8.07907 17.5817 7.6066C17.5832 7.04721 17.5846 6.48781 17.5779 5.92852ZM9.49696 9.41747C10.3747 9.32588 11.2439 9.16539 12.0964 8.93747L12.0966 8.93753C12.6178 8.74463 13.1824 8.7 13.7275 8.8086C14.0695 8.93125 14.3332 9.20875 14.4382 9.5566C14.5843 10.2763 14.6354 11.012 14.5904 11.7449C14.6476 12.292 14.5282 12.8431 14.2496 13.3175C14.1023 13.5309 13.9181 13.7162 13.7055 13.8647C13.9897 13.9635 14.2289 14.161 14.3796 14.4214C14.5062 14.7178 14.5625 15.0396 14.544 15.3614C14.5486 15.9384 14.5467 16.5154 14.5448 17.0925C14.5424 17.785 14.5401 18.4775 14.5491 19.1699C14.559 19.4248 14.6144 19.6758 14.7128 19.9111C14.0137 19.9524 13.3211 20.0686 12.6468 20.2578C12.5371 20.0397 12.4809 19.7986 12.4832 19.5545C12.4724 18.9452 12.4753 18.3357 12.4781 17.7262C12.4809 17.1416 12.4836 16.557 12.4744 15.9726C12.4824 15.797 12.4634 15.5661 12.2757 15.4887C12.0158 15.4956 11.7584 15.5409 11.5118 15.6231C11.5044 17.2489 11.5051 18.8745 11.514 20.4998C10.8508 20.6744 10.1739 20.7914 9.49063 20.8497C9.48027 18.9074 9.48176 16.9651 9.48325 15.0229C9.48443 13.4902 9.48561 11.9576 9.48096 10.4249C9.47692 10.0887 9.48225 9.75293 9.49696 9.41747ZM11.5031 10.8531C11.7855 10.7457 12.0906 10.7116 12.3898 10.754C12.4683 10.9493 12.4991 11.1606 12.4796 11.3702C12.4796 11.5249 12.4804 11.6797 12.4811 11.8344C12.483 12.2389 12.485 12.6433 12.4737 13.0477C12.4647 13.2616 12.3419 13.4544 12.1519 13.5529C11.948 13.6258 11.7371 13.6772 11.5226 13.7063C11.503 13.1614 11.5051 12.6165 11.5073 12.0716V12.0716V12.0716V12.0716V12.0716C11.5089 11.6654 11.5105 11.2592 11.5031 10.8531ZM19.608 13.4495C19.8265 13.3756 20.0557 13.3381 20.2863 13.3385C20.4676 13.3781 20.513 13.6035 20.4904 13.7613C20.4953 14.1696 20.4947 14.5779 20.494 14.9862C20.4935 15.28 20.4931 15.5737 20.4946 15.8675C20.527 16.058 20.4703 16.2528 20.3407 16.3961C20.2095 16.5532 20.0106 16.5805 19.8173 16.6071C19.749 16.6164 19.6814 16.6257 19.6178 16.6406C19.6008 15.9032 19.6035 15.1657 19.6062 14.4282C19.6074 14.102 19.6086 13.7758 19.608 13.4495ZM20.5431 11.4541C19.5697 11.7094 18.5821 11.9074 17.5855 12.0469C17.5798 14.4047 17.5807 16.7625 17.5816 19.1203V19.1213V19.1213C17.5821 20.5598 17.5827 21.9983 17.5817 23.4367L17.5788 23.4741C18.1074 23.4161 18.6291 23.3143 19.1509 23.2126C19.2981 23.1839 19.4454 23.1552 19.5928 23.1274C19.6137 22.2994 19.6101 21.471 19.6066 20.6425C19.6035 19.9333 19.6005 19.224 19.6128 18.5148C20.1177 18.4346 20.6141 18.3081 21.0958 18.1367C21.4904 17.9878 21.8359 17.7324 22.0941 17.3989C22.3565 17.0145 22.5107 16.5668 22.5408 16.1024C22.5664 15.6336 22.563 15.1642 22.5595 14.6948V14.6948C22.5573 14.3904 22.5551 14.086 22.5608 13.7818C22.5951 13.2564 22.5509 12.7288 22.4296 12.2164C22.3468 11.9348 22.1663 11.6919 21.9205 11.5314C21.4834 11.3502 20.9978 11.323 20.5432 11.4542L20.5431 11.4541Z" fill="white"/>
<path fill-rule="evenodd" clip-rule="evenodd" d="M14.5442 22.9705C15.1818 22.9435 15.8202 22.995 16.4452 23.1239C16.832 23.2097 17.2112 23.3269 17.5789 23.4743L17.5754 23.5171C17.5515 23.6376 17.5027 23.7517 17.4321 23.8523C17.0677 24.3345 16.6245 24.7518 16.1211 25.0864C15.62 25.4483 15.0947 25.7753 14.5488 26.0653C14.5372 25.0471 14.5433 23.9889 14.5442 22.9705Z" fill="#D2D3D5"/>
</svg>

<svg xmlns="http://www.w3.org/2000/svg" width="32" height="32" fill="none" viewBox="0 0 32 32">
  <path fill="#CF2327" fill-rule="evenodd" d="M3.366 28.634C.911 26.178 0 22.178 0 16S.91 5.822 3.366 3.366C5.822.911 9.822 0 16 0s10.178.91 12.634 3.366C31.089 5.822 32 9.822 32 16s-.91 10.178-3.366 12.634C26.178 31.089 22.178 32 16 32s-10.178-.91-12.634-3.366Z" clip-rule="evenodd"/>
  <path fill="#fff" fill-rule="evenodd" d="M17.578 5.929a5.39 5.39 0 0 0-2.585-.492c-1.03.037-2.03.272-3.03.507-.826.194-1.653.389-2.498.471a6.324 6.324 0 0 1-2.589-.29 5.968 5.968 0 0 0-.465-.171c-.01 3.187-.008 6.375-.007 9.562.001 2.302.002 4.603 0 6.904-.002.349.001.698.01 1.047.086.03.171.064.256.098.162.065.324.13.494.172a6.48 6.48 0 0 0 2.934.108c.67-.098 1.329-.253 1.988-.408.813-.191 1.626-.383 2.458-.466.003.459.002.917 0 1.376 0 .573-.002 1.146.005 1.719.87.401 1.83.569 2.785.486.943-.064 1.86-.28 2.776-.498.705-.167 1.41-.334 2.126-.431a5.935 5.935 0 0 1 3.365.45c-.012-5.837-.011-11.675.002-17.513a5.204 5.204 0 0 0-2.735-.509c-.972.058-1.917.282-2.862.505-.802.19-1.604.38-2.423.468-.004-.472-.002-.945-.001-1.417.001-.56.003-1.12-.004-1.678ZM9.497 9.417a16.825 16.825 0 0 0 2.6-.48 3.007 3.007 0 0 1 1.63-.128c.342.122.606.4.711.748a8.41 8.41 0 0 1 .152 2.188 2.576 2.576 0 0 1-.34 1.573 2.173 2.173 0 0 1-.544.547c.284.098.523.296.674.556.126.297.182.619.164.94.005.577.003 1.154 0 1.732-.002.692-.004 1.384.005 2.077.01.255.065.506.164.741-.7.041-1.392.158-2.066.347a1.533 1.533 0 0 1-.164-.703c-.01-.61-.008-1.22-.005-1.829a85.42 85.42 0 0 0-.004-1.753c.008-.176-.01-.407-.198-.484-.26.007-.518.052-.764.134a486.34 486.34 0 0 0 .002 4.877c-.663.174-1.34.291-2.023.35-.01-1.943-.01-3.885-.008-5.827.001-1.533.003-3.065-.002-4.598-.004-.336.001-.672.016-1.008Zm2.006 1.436a1.8 1.8 0 0 1 .887-.099c.078.195.11.407.09.616l.001.464c.002.405.004.81-.007 1.214a.597.597 0 0 1-.322.505 3.112 3.112 0 0 1-.63.153 40.87 40.87 0 0 1-.015-1.634c.002-.407.004-.813-.004-1.219Zm8.105 2.597c.218-.074.448-.112.678-.111.182.04.227.264.204.422.005.409.005.817.004 1.225v.881a.63.63 0 0 1-.153.53c-.132.156-.33.184-.524.21-.068.01-.136.019-.2.034a81.63 81.63 0 0 1-.01-2.213c0-.326.002-.652.001-.979Zm.935-1.996a25.83 25.83 0 0 1-2.957.593c-.006 2.358-.005 4.715-.004 7.073v4.317l-.003.037c.528-.058 1.05-.16 1.572-.261.147-.03.294-.058.442-.086.02-.828.017-1.656.014-2.485-.003-.709-.006-1.418.006-2.127a8.314 8.314 0 0 0 1.483-.378 2.28 2.28 0 0 0 .998-.738c.262-.384.417-.832.447-1.297.025-.468.022-.938.018-1.407-.002-.305-.004-.609.002-.913a5.297 5.297 0 0 0-.131-1.566 1.234 1.234 0 0 0-.51-.685 2.086 2.086 0 0 0-1.377-.077Z" clip-rule="evenodd"/>
  <path fill="#D2D3D5" fill-rule="evenodd" d="M14.544 22.97a7.787 7.787 0 0 1 1.901.154 7.36 7.36 0 0 1 1.134.35l-.004.043a.883.883 0 0 1-.143.335 5.37 5.37 0 0 1-1.31 1.235c-.502.361-1.027.688-1.573.978-.012-1.018-.006-2.076-.005-3.094Z" clip-rule="evenodd"/>
</svg>
